**kern	**kern
*staff2	*staff1
*clefF4	*clefG2
*k[]	*k[]
*M3/4	*M3/4
*C:	*C:
=-	=-
4r	4g 4ee
=2	=2
[2.c 2.C	2g 2ee
.	4e 4cc
=3	=3
2c] 2C	2a 2ff
4c 4C	4g 4ee
=4	=4
*^	*
2G	[2.C	2g 2ee
4B	.	4f 4dd
=5	=5	=5
4c	2C]	2e 2cc
4r	.	.
*v	*v	*
4c	4e 4cc
=6	=6
2B	2g 2dd
4c	4g 4cc 4ee
=7	=7
2F	4a 4dd 4ff
.	2a 2dd 2ff
4D	.
=8	=8
2G	[2.g [2.b [2.dd
4GG	.
=9	=9
4G	4g] 4b] 4dd]
4r	4r
=	=
*-	*-
